X: 22914
T: Larry Grogan
R: jig
M: 6/8
K: Gmajor
|:c|BGB BGB|AFA ABc|B/c/dB cAF|G>AG G2:|
|:e|=f>gf edc|B>cd dBG|=f>gf efg|A>BA A2 e|
=f>gf edc|B>cd dBG|B/c/dB cAF|G>AG G2:|
|:d|B/B/Bg B/B/Bg|A/A/Ag A/A/Ag|B/B/Bg A/A/Ag|G>AG G2:|
|:e|=f2a e2g|dec dBG|=f>ed egB|aAA A2e|
~=f3 ~e3|dec dBG|B/c/dB cAF|G>AG G2:|

